svgs/sharp-solid/comment-captions.svg

<svg xmlns="http://www.w3.org/2000/svg" viewBox="0 0 512 512"><!--! Font Awesome Pro 6.6.0 by @fontawesome - https://fontawesome.com License - https://fontawesome.com/license (Commercial License) Copyright 2024 Fonticons, Inc. --><path d="M512 240c0 114.9-114.6 208-256 208c-31.5 0-61.7-4.6-89.6-13.1L16 480 56.9 370.8C21.3 335.1 0 289.6 0 240C0 125.1 114.6 32 256 32s256 93.1 256 208zM120 208l-24 0 0 48 24 0 144 0 24 0 0-48-24 0-144 0zm224 0l-24 0 0 48 24 0 48 0 24 0 0-48-24 0-48 0zM120 288l-24 0 0 48 24 0 48 0 24 0 0-48-24 0-48 0zm128 0l-24 0 0 48 24 0 144 0 24 0 0-48-24 0-144 0z"/></svg>

<svg xmlns="http://www.w3.org/2000/svg" viewBox="0 0 512 512"><!--! Font Awesome Pro 6.5.2 by @fontawesome - https://fontawesome.com License - https://fontawesome.com/license (Commercial License) Copyright 2024 Fonticons, Inc. --><path d="M512 240c0 114.9-114.6 208-256 208c-31.5 0-61.7-4.6-89.6-13.1L16 480 56.9 370.8C21.3 335.1 0 289.6 0 240C0 125.1 114.6 32 256 32s256 93.1 256 208zM120 208H96v48h24H264h24V208H264 120zm224 0H320v48h24 48 24V208H392 344zM120 288H96v48h24 48 24V288H168 120zm128 0H224v48h24H392h24V288H392 248z"/></svg>
